X:173
T:All The Blue Bonnets. RHu.169
S:R.Hughes MS,1823,Whitchurch,Shrops.
N:Song words written below music line
A:Whitchurch, Shropshire
Z:Tony Weatherall 2006
M:6/8
L:1/8
Q:3/8=100
R:Quickstep
K:G
d3d3|a>bc’ bag|eaf g2z||G2zG2z|!
G>BA G>ED|G>EE E>Ee|d>cB B>AG|G2zG2z|!
G>BA GED|G>ce d<Bd|d>cB B>AG|z4||!
G>Bd dBG|e>dB B>AG|G>Bd e>cB|G>AB/c/ B>AG|!
G>Bd dB>G|e>dB A>GA|G>ce dB>d|e>dB B>AG|]

